X: 19330
T: Jack Is Yet Alive
R: reel
M: 4/4
K: Gmajor
DG ~G2 ABce|dBAc BE ~E2|DG ~G2 ABcA|1 ~B2AF G3E:|2 ~B2 AF GABd||
~g3 e ~f3 d|eaag fddf|gfge ~f2df|eaaf g2 gf|
gbbg faaf|e2 ag fddf|gd ~d2 ecAc|~B2 AF ~G3 E||

